outputs/icons/alert/alert_active_round.svg

<svg width="1200" height="1200" viewBox="0 0 1200 1200" fill="none" xmlns="http://www.w3.org/2000/svg"><g clip-path="url(#clip0_231_5371)"><path d="M900 800V550C900 396.5 818 268 675 234V200C675 158.5 641 125 599.5 125C558 125 525 158.5 525 200V234C381.499 268 299.999 396 299.999 550V800L234.999 864.5C203.499 896 225.499 950 269.999 950H928.5C973 950 995.5 896 964 864.5L900 800ZM599.5 1100C654.5 1100 699.5 1055 699.5 1000H499.499C499.499 1055 544 1100 599.5 1100ZM338.499 236.5C359.499 217.5 359.999 185 339.999 165C320.999 146 289.999 145.5 270.499 164C184.999 242 125.999 348 106.999 467C102.499 497.5 125.999 525 156.999 525C180.999 525 201.999 507.5 205.999 483.5C220.999 386.5 268.999 300 338.499 236.5ZM930 164C910 145.5 879 146 860 165C840 185 841 217 861.5 236C930.5 299.5 979 386 994 483C997.5 507 1018.5 524.5 1043 524.5C1073.5 524.5 1097.5 497 1092.5 466.5C1073.5 348 1015 242.5 930 164Z" fill="#1D1E23"/></g><defs><clipPath id="clip0_231_5371"><path width="24" fill="white" d="M0 0H1200V1200H0V0z"/></clipPath></defs></svg>

<svg xmlns="http://www.w3.org/2000/svg" width="1200" height="1200" fill="none"><g clip-path="url(#a)"><path fill="#000" d="M900 800V550c0-153.5-82-282-225-316v-34c0-41.5-34-75-75.5-75S525 158.5 525 200v34c-143.501 34-225.001 162-225.001 316v250l-65 64.5c-31.5 31.5-9.5 85.5 35 85.5H928.5c44.5 0 67-54 35.5-85.5zm-300.5 300c55 0 100-45 100-100H499.499c0 55 44.501 100 100.001 100M338.499 236.5c21-19 21.5-51.5 1.5-71.5-19-19-50-19.5-69.5-1-85.5 78-144.5 184-163.5 303-4.5 30.5 19 58 50 58 24 0 45-17.5 49-41.5 15-97 63-183.5 132.5-247M930 164c-20-18.5-51-18-70 1-20 20-19 52 1.5 71 69 63.5 117.5 150 132.5 247 3.5 24 24.5 41.5 49 41.5 30.5 0 54.5-27.5 49.5-58-19-118.5-77.5-224-162.5-302.5"/></g><defs><clipPath id="a"><path fill="#fff" d="M0 0h1200v1200H0z"/></clipPath></defs></svg>
